X:1
T:I Had a Dream of Heaven
T:I Had a Dream of Heaven
T:Traditional English melody
T:Richard W. Adams, 2010
T:© 2010 Richard W. Adams. Reproduce or publish freely for Christian worship or devotions. Courtesy of the Cyber Hymnal™
T:© 2010 Richard W. Adams. Reproduce or publish freely for Christian worship or devotions. Courtesy of the Cyber Hymnal™
C:Traditional English melody
Z:© 2010 Richard W. Adams. Reproduce or publish freely for Christian worship or devotions.
Z:Courtesy of the Cyber Hymnal™
%%score ( 1 2 ) ( 3 4 )
L:1/8
Q:1/4=110
M:4/4
K:Eb
V:1 treble 
V:2 treble 
V:3 bass 
V:4 bass 
V:1
 (EF) | [EG]2 [EB]2 [DG]2 [DF]2 | E6 (FG) | [EA]2 [Ec]2 [EB]2 [EG]2 | [DF]6 [Dc]2 | %5
w: 1.~In~my *|deep- est dream I|hear A *|dis- tant trum- pet|call, “Get|
w: 2.~I *|see the ran- somed|saints, A *|mul- ti- tude un-|told, So|
w: 3.~Pro- *|ceed- ing from the|throne, Flows~a *|crys- tal ri- ver|pure, It|
w: 4.~I *|walk the gold- en|streets, Where~no *|temp- ter can en-|snare, No|
w: 5.~Too *|soon the morn- ing|comes, And~the *|veil ob- scures my|sight, But|
 [EB]2 [EG]2 [DG]2 ([DF]E) | [DG]2 [DF]2 E2 B,2 | (EF) [EG]2 [DB]2 (FG) | E6 [DB]2 | %9
w: up and see, come *|un- to Me”: I|sight * a gold- en *|wall— Be-|
w: glor- ious bright, with *|crowns of light, The|vic- * tor’s palm they *|hold; I|
w: life be- stows wher- *|e’er it goes, And|eve- * ry ill will *|cure; A-|
w: dar- kness here, no~more *|guilt or fear, No|sha- * dow an- y- *|where; For|
w: now I see what~my *|goal must be, That|heaven- * ly ci- ty *|bright— The|
 [Ee]2 [GB]2 [Ac]2 [Ad]2 | [Ge]6 (ed) | [Ec]2 [Ee]2 [Ed]2 [Ec]2 | [EB]6 [Dc]2 | %13
w: hold, Je- ru- sa-|lem! With *|an- gels round the|throne, And|
w: hear e- ter- nal|choirs, Singing *|praise un- to the|Lamb, “Sal-|
w: long the wa- ter’s|edge, Are *|trees of fade- less|bloom, No|
w: no- thing base or|false Can *|live with- in these|walls: No|
w: walls whose cor- ner-|stone Is *|Je- sus Christ our|Lord, By|
 [EB]2 [EG]2 [DG]2 ([DF]E) | [DG]2 [DF]2 E2 B,2 | (EF) [EG]2 [DB]2 ([DF][DG]) | E6 |] %17
w: em- erald rain- bow *|all a- glow, A-|bove * a crys- tal *|sea.|
w: va- tion power burst *|in- to flower, And|o- * ver- comes the *|night.”|
w: more we grieve, for *|their heal- ing leaves,|God’s * love and bless- *|ing|
w: sec- ret sin can *|hide with- in, No|e- * vil in- ter- *|fere.|
w: faith in Him, the *|prize we win: God’s|love * e- ter- nal- *|ly.|
V:2
 E2 | x8 | E6 E2 | x8 | x8 | x7 E | x4 E2 B,2 | x6 D2 | E6 x2 | x8 | x6 E2 | x8 | x8 | x7 E | %14
 x4 E2 B,2 | x8 | E6 |] %17
V:3
 (G,A,) | [E,B,]2 [E,G,]2 [B,,B,]2 [B,,A,]2 | [E,G,]6 (A,B,) | [E,C]2 [E,A,]2 [E,G,]2 [E,B,]2 | %4
 [B,,B,]6 [B,,A,]2 | [E,G,]2 [E,B,]2 [B,,B,]2 (A,G,) | [B,,B,]2 [B,,B,]2 [E,G,]2 [E,G,]2 | %7
 (G,A,) [E,B,]2 [B,,B,]2 [B,,A,]2 | [E,G,]6 (B,A,) | [E,G,]2 [E,B,]2 A,2 [F,B,]2 | %10
 [E,B,]6 [G,B,]2 | A,2 [A,C]2 [A,B,]2 A,2 | [E,G,]6 [B,,A,]2 | %13
 [E,G,]2 [E,B,]2 [B,,B,]2 ([B,,A,][B,,G,]) | [B,,B,]2 [B,,A,]2 [E,G,]2 [B,,B,]2 | %15
 (G,A,) [E,B,]2 [B,,B,]2 ([B,,A,][B,,A,]) | [E,G,]6 |] %17
V:4
 E,2 | x8 | x6 E,2 | x8 | x8 | x6 B,,2 | x8 | E,2 x6 | x6 F,2 | x8 | x8 | A,2 x2 A,2 x2 | x8 | x8 | %14
 x8 | E,2 x6 | x6 |] %17

